X: 302
T: Margaret's Kilty Socks
C: Bert Murray
R: hornpipe
B: Bert Murray's "Bon Accord Collection" 1999 p.30
%
Z: 2011 John Chambers <jc:trillian.mit.edu>
M: 4/4
L: 1/8
K: G
(uDE/F/) |\
G>FG>A G>DB,>D | G>FG>A G>DB,>D | E>Gc>E D>GB>G | (3ABA (3GFE (3DFA (3cBA |
G>FG>A G>DB,>D | E>Gc>E D2(G>F) | E>Gc>E D>GB>G | (3ABc (3def g3 ||
(d^c/=c/) |\
B>c^c>d g>dB>G | c>d^d>e a>ec>A | B>c^c>d g>dB>G | (3ABA (3GFE (3DFA (3cBA |
B>c^c>d g>dB>G | E>CE>G D2(B,>D) | E>Gc>E D>GB>G | (3FED (3CB,A, G,3 |]
